packages/core/src/svgs/tokens/branded/HERO.svg

<svg width="24" height="24" viewBox="0 0 24 24" fill="none" xmlns="http://www.w3.org/2000/svg">
<path fill-rule="evenodd" clip-rule="evenodd" d="M11.5333 2.12332C11.6756 2.0425 11.8364 2 11.9999 2C12.1635 2 12.3243 2.0425 12.4665 2.12332L20.4427 6.67799C20.7205 6.83352 20.8871 7.11679 20.8871 7.41674V16.5816C20.8871 16.8816 20.7205 17.1648 20.4427 17.3203L12.4665 21.875C12.1777 22.0417 11.8222 22.0417 11.5333 21.875L3.55715 17.3203C3.27942 17.1648 3.11279 16.8816 3.11279 16.5816V7.41674C3.11279 7.11679 3.27942 6.83352 3.55715 6.67799L11.5333 2.12332ZM11.5611 2.67322C11.695 2.59726 11.8461 2.55733 11.9999 2.55733C12.1538 2.55733 12.305 2.59726 12.4388 2.67322L19.9151 6.97237C20.1761 7.12235 20.3317 7.3834 20.3317 7.67224V16.3317C20.3317 16.6204 20.1761 16.8872 19.9151 17.0316L15.7881 19.4033L15.6215 14.3043L16.4547 12.1214L16.4713 12.0769L16.5269 11.8159C16.6435 11.3382 16.7823 10.7883 16.7712 10.2606C16.7712 9.9107 16.688 8.87201 16.6491 8.42765L16.6435 8.31101L16.5935 8.19991C16.4765 7.93259 16.3212 7.68372 16.1325 7.46116C15.9675 7.25504 15.7534 7.09363 15.5097 6.99174C15.2662 6.88984 15.0009 6.85072 14.7383 6.87795C14.5986 6.7003 14.4195 6.5576 14.2151 6.4612C14.0107 6.36479 13.7866 6.3173 13.5607 6.3225C13.433 6.3225 13.3163 6.32806 13.2052 6.35027C12.959 6.02857 12.5957 5.817 12.1943 5.76151C11.8838 5.70437 11.5634 5.73912 11.2723 5.86148C11.0533 5.71331 10.8019 5.61995 10.5391 5.58931H10.4614C9.95036 5.58931 9.54482 5.72817 9.25604 6.02812C9.05053 6.23919 8.93388 6.51136 8.86167 6.78908C8.55618 6.83352 8.20624 6.91683 7.88409 7.08347C7.33419 7.37786 7.18422 7.96107 7.13423 8.27767C7.08382 8.60692 7.08007 8.94164 7.12311 9.27193L7.4064 11.5714L9.50037 14.2044L9.03386 19.8755L4.08483 17.0316C3.95984 16.962 3.85546 16.8606 3.7823 16.7377C3.70913 16.6147 3.66978 16.4746 3.66824 16.3317V7.66669C3.66824 7.37786 3.82376 7.11123 4.08483 6.96683L11.5556 2.66766L11.5611 2.67322ZM9.3949 20.0809L9.73923 20.2753L9.83928 19.1423L11.3778 16.0484L15.0105 19.1978H15.0215L15.0438 19.831L15.4159 19.6089L15.2326 14.2377L16.088 12.0159L16.0936 11.9936L16.1602 11.716C16.2713 11.2382 16.3991 10.7384 16.3935 10.2551C16.3879 9.92185 16.3102 8.90533 16.2713 8.44432L16.2658 8.38877L16.2436 8.33322C16.1401 8.10005 16.0035 7.88304 15.838 7.68891C15.6603 7.48339 15.3604 7.22233 14.966 7.22233C14.8105 7.22233 14.6661 7.24454 14.5495 7.28343C14.4614 7.09687 14.3211 6.93986 14.1456 6.83142C13.9702 6.72296 13.7669 6.66774 13.5607 6.67243C13.3552 6.67243 13.1719 6.71687 13.022 6.77242C12.9451 6.5938 12.8224 6.43864 12.6663 6.32258C12.5103 6.20653 12.3264 6.13369 12.1333 6.11144C11.9771 6.07896 11.8159 6.07948 11.66 6.11296C11.5041 6.14643 11.357 6.21213 11.2279 6.30585C11.0002 6.06144 10.678 5.96702 10.5003 5.95035H10.4614C9.58928 5.95035 9.29492 6.40582 9.18382 7.11679C8.86167 7.13901 8.43397 7.20566 8.07293 7.39452C7.68968 7.60004 7.56193 8.02217 7.51193 8.32767C7.45639 8.66094 7.47305 8.9942 7.50082 9.21638L7.77855 11.4271L9.88931 14.0932L9.40046 20.0809H9.3949ZM11.2945 16.0039L9.85587 18.8979L10.2726 14.0987L11.3112 15.9762L11.2945 16.0039ZM9.30047 11.2382L10.1336 13.7933L8.1618 11.3049L9.30047 11.2382ZM9.23383 11.1549L8.13403 11.2215L7.9674 9.88854L7.9785 9.84408L8.00073 9.83294L9.23383 11.1549ZM8.41732 8.09993L7.93962 9.66627L7.88409 9.1775C7.82854 8.7998 7.82854 8.02217 8.20068 7.75L8.42287 8.09439L8.41732 8.09993ZM8.51173 8.06661L8.27845 7.70557C8.62746 7.54931 9.00708 7.47339 9.38935 7.48339L9.86702 8.35543L8.51173 8.06661ZM10.3946 7.10013L9.52266 7.42228L9.63373 6.70577C9.63373 6.68354 9.65045 6.65022 9.67261 6.61134L10.3946 7.10013ZM10.4614 6.31139C10.0614 6.31139 9.83928 6.42249 9.72821 6.54468L10.4724 7.04459L10.4947 7.0668L11.1056 6.84462C11.0113 6.45581 10.6446 6.32806 10.4614 6.31139ZM11.2167 6.92239H11.2111L11.139 9.54962L11.1557 9.59408L12.0499 8.22214L11.2167 6.92795V6.92239ZM12.0665 6.47248C11.5778 6.39472 11.3501 6.65022 11.2723 6.84462L12.7275 7.15011C12.7118 6.97755 12.6369 6.81573 12.5154 6.6922C12.3939 6.56866 12.2333 6.49101 12.0611 6.47248H12.0665ZM13.4164 8.30545L12.8776 7.27788C12.9887 7.17789 13.222 7.03903 13.5607 7.03903C14.0385 7.03903 14.2718 7.40007 14.2773 7.78334L13.4164 8.31101V8.30545ZM14.4717 7.76667L14.4273 7.79444L14.4161 7.81666L14.7661 8.361L15.8047 8.2999C15.6382 7.98885 15.3215 7.58337 14.966 7.58337C14.6994 7.58337 14.5439 7.66669 14.4662 7.75L14.4717 7.76667ZM15.627 9.09418C15.7214 8.84979 15.8047 8.61095 15.8659 8.41654L15.888 8.47208C15.9214 8.87201 15.9825 9.67184 15.9991 10.0884L15.627 9.08863V9.09418ZM15.9658 10.2495L16.0047 10.3551C15.9881 10.6217 15.8936 11.116 15.8103 11.5104L15.7548 11.5216L13.7552 10.9383L15.9658 10.2495ZM13.6941 12.7269L15.7881 11.6271L15.7215 11.9158L14.8494 14.1765L13.6941 12.7323V12.7269ZM14.8217 14.2876L14.855 14.3264L15.0105 18.9756L13.3885 14.932L14.8217 14.2876ZM12.6998 7.23344L11.3389 6.95016L12.1055 8.13881L12.6998 7.23344ZM11.3223 9.50517L12.1055 8.2999L12.4942 8.83868L11.3223 9.50517ZM11.1557 9.79963L11.2835 9.9107L11.85 10.4995C11.6 10.3606 11.3056 10.2329 11.0335 10.1273L11.1557 9.79406V9.79963ZM11.0556 9.29971L11.0945 7.75L10.6947 8.21103L11.0556 9.29415V9.29971ZM10.4724 8.54984C10.267 8.796 9.98898 8.97095 9.67819 9.04975L10.0503 9.73846L10.4724 8.54984ZM9.93364 9.71629C9.7671 9.58293 9.64488 9.38302 9.63931 9.15529L9.93364 9.71629ZM10.117 9.81622L10.6446 8.34433L11.0502 9.56077V9.63853C11.0057 9.72187 10.8279 9.90513 10.4724 9.90513L10.3946 9.89955L10.117 9.81622ZM10.0337 9.89955L10.0614 9.95515L10.0781 9.92742L10.8668 10.9605L8.21735 9.82179L10.0337 9.89955ZM11.0723 9.75517L10.9446 10.094C10.8335 10.0495 10.728 10.0106 10.6279 9.98289C10.8502 9.94401 10.9946 9.84408 11.0723 9.76075V9.75517ZM12.1166 10.7717L12.1443 10.805L12.1499 10.7828C12.6005 11.0944 12.9762 11.5022 13.2497 11.977L11.1834 11.0939L12.1166 10.7717ZM12.1722 10.6716L12.2944 10.0385C12.4276 10.2162 12.6776 10.4273 13.0553 10.4273C13.3122 10.434 13.5633 10.3516 13.7663 10.194L13.5719 10.8883L12.1722 10.6662V10.6716ZM12.2221 9.95515L12.0888 10.6217L11.5333 10.0385C11.5945 10.0607 11.6611 10.0718 11.7333 10.0718C11.9666 10.0718 12.1277 10.0106 12.2221 9.95515ZM12.1777 9.87739C12.1054 9.92185 11.9555 9.98846 11.7333 9.98846C11.5945 9.98846 11.4667 9.93286 11.3612 9.8551L11.3445 9.84408L11.2612 9.75517L12.1777 9.87739ZM12.2665 9.79963L11.2167 9.66069L12.4721 8.95532C12.4144 9.23927 12.3458 9.52085 12.2665 9.79963ZM12.3221 9.9107C12.4165 10.0774 12.6553 10.3384 13.0553 10.3384C13.4497 10.3384 13.6885 10.1607 13.7885 10.0495L13.7719 9.98289L12.3277 9.89398L12.3221 9.91627V9.9107ZM13.7384 9.89398L12.3554 9.81078L12.3776 9.75517C12.4529 9.47432 12.5177 9.19089 12.572 8.90533L13.7384 9.89398ZM12.161 8.22214L12.7275 7.35564C12.672 7.75556 12.5943 8.24435 12.5221 8.6776L12.5109 8.71649L12.161 8.22214ZM11.3612 15.8763L10.3169 13.9988L12.3 13.9655L11.3557 15.8763H11.3612ZM10.267 13.9099L12.2388 13.8766L9.43375 11.3437L10.2614 13.8933L10.267 13.9099ZM14.7661 14.2154L13.6441 12.8046L13.3775 14.8431L14.7661 14.2154ZM13.544 12.8601L12.422 13.9266L13.2886 14.8153L13.544 12.8601ZM13.272 14.9264L12.3776 14.01L11.4167 15.965L14.9272 19.0145L13.3053 14.9708L13.2664 14.9874L13.272 14.9264ZM15.5548 11.6492L13.6497 12.6491L13.3885 12.0603L15.5548 11.6492ZM13.5719 12.7046L13.3163 12.1214L12.5277 13.7099L13.5719 12.7102V12.7046ZM13.5496 10.9827L13.2997 11.8881C13.0412 11.4551 12.6995 11.0775 12.2944 10.7772L13.5496 10.9772V10.9827ZM12.0388 10.705C11.5117 10.4035 10.9528 10.1614 10.3725 9.98289C10.3169 9.98289 10.2614 9.9663 10.2058 9.94958L11.039 11.0327L11.0556 11.0438H11.0723L12.0388 10.7105V10.705ZM15.9381 10.1717L15.5826 9.21638C15.4771 9.47186 15.3604 9.71629 15.2494 9.89955C15.0604 10.1996 14.8272 10.394 14.5717 10.4329C14.3384 10.4718 14.0995 10.3717 13.8774 10.1218L13.6718 10.8716L15.9381 10.1717ZM12.2276 13.7488L9.43375 11.2271L10.989 11.1327L12.2276 13.7432V13.7488ZM9.35047 11.1493L10.8613 11.055L8.19514 9.9107L9.35047 11.1493ZM13.3719 11.977L13.6385 10.9938L15.5659 11.5604L13.3719 11.977ZM12.3666 13.8266L13.2441 12.0659L11.1001 11.1549L12.3666 13.8266ZM9.9059 9.8052L8.13959 9.73301L9.0283 9.12195V9.12751C9.16161 9.13306 9.34491 9.12751 9.54482 9.07752C9.52266 9.38858 9.67819 9.6441 9.9059 9.8052ZM13.3386 8.35543L12.8164 7.36119C12.7507 7.83645 12.6767 8.3105 12.5943 8.78313L13.3386 8.35543ZM12.6443 8.85534L13.3775 8.4332L13.7107 9.75517L12.6443 8.85534ZM13.4552 8.38877L14.255 7.89998C14.144 8.49985 13.9607 9.41082 13.8385 9.86067L13.8329 9.8551L13.4608 8.39432L13.4552 8.38877ZM14.3551 7.88886C14.2495 8.42209 14.0884 9.2386 13.9663 9.73301L14.6883 8.41098L14.3551 7.88331V7.88886ZM13.9773 9.89955L15.5493 9.04975C15.6382 8.8109 15.7159 8.57762 15.777 8.38321L14.7661 8.44986L13.9773 9.89398V9.89955ZM10.5725 7.1279L11.1168 6.92795L11.1001 7.57781L10.5725 7.13346V7.1279ZM10.7557 7.99996L11.0612 7.65557L10.8502 7.47783C10.8446 7.6778 10.8002 7.8611 10.7557 7.99996ZM10.4558 7.16678V7.17789C10.5003 7.20012 10.5613 7.24454 10.6225 7.30009L10.7613 7.43895C10.7557 7.76111 10.6558 8.04994 10.5946 8.17215L9.98366 8.37766L9.50594 7.51671L10.4558 7.17234V7.16678ZM10.5447 8.27767C10.378 8.59428 10.1115 8.78313 9.83371 8.89977C9.58371 8.99976 9.3338 9.03864 9.13939 9.04419L9.96694 8.47208H9.98366L10.5391 8.28323L10.5447 8.27767ZM14.5605 10.344C14.3551 10.3773 14.1328 10.2884 13.9162 10.0329L15.4992 9.1775C15.3993 9.42741 15.2827 9.67741 15.166 9.8551C14.9882 10.144 14.7772 10.3107 14.5549 10.344H14.5605ZM9.85587 8.44432L8.49508 8.15548L8.02295 9.71072L9.85587 8.44432Z" fill="#62C6BA"/>
</svg>

<svg xmlns="http://www.w3.org/2000/svg" width="24" height="24" fill="none" viewBox="0 0 24 24">
    <path fill="#62C6BA" fill-rule="evenodd" d="M11.533 2.123a.95.95 0 0 1 .934 0l7.976 4.555a.85.85 0 0 1 .444.739v9.165c0 .3-.166.583-.444.738l-7.977 4.555a.93.93 0 0 1-.933 0L3.557 17.32a.85.85 0 0 1-.444-.738V7.417c0-.3.166-.583.444-.739zm.028.55a.89.89 0 0 1 .878 0l7.476 4.3c.261.15.417.41.417.7v8.659a.8.8 0 0 1-.417.7l-4.127 2.371-.167-5.099.834-2.183.016-.044.056-.261c.116-.478.255-1.028.244-1.555 0-.35-.083-1.389-.122-1.833l-.006-.117-.05-.111a3 3 0 0 0-.46-.739 1.58 1.58 0 0 0-1.395-.583 1.46 1.46 0 0 0-1.177-.556 2 2 0 0 0-.356.028 1.54 1.54 0 0 0-1.01-.588 1.6 1.6 0 0 0-.923.1 1.65 1.65 0 0 0-.733-.273h-.078c-.51 0-.916.14-1.205.44-.205.21-.322.482-.394.76a3.1 3.1 0 0 0-.978.294c-.55.295-.7.878-.75 1.195-.05.329-.054.664-.01.994l.282 2.3L9.5 14.203l-.466 5.671-4.95-2.843a.81.81 0 0 1-.416-.7V7.667c0-.29.156-.556.417-.7l7.47-4.3zM9.395 20.081l.344.194.1-1.133 1.539-3.094 3.633 3.15h.01l.023.633.372-.222-.183-5.371.855-2.222.006-.022.066-.278c.111-.478.24-.978.233-1.46a45 45 0 0 0-.122-1.812l-.005-.055-.022-.056a2.7 2.7 0 0 0-.406-.644c-.178-.206-.478-.467-.872-.467-.155 0-.3.023-.416.061a1.07 1.07 0 0 0-.99-.61 1.5 1.5 0 0 0-.538.1 1.1 1.1 0 0 0-.889-.662 1.14 1.14 0 0 0-.905.195 1.2 1.2 0 0 0-.728-.356h-.039c-.872 0-1.166.456-1.277 1.167-.322.022-.75.089-1.111.278-.383.205-.511.627-.561.933a3.2 3.2 0 0 0-.011.888l.278 2.211 2.11 2.666-.489 5.988zm1.9-4.077-1.44 2.894.418-4.8 1.038 1.878zM9.3 11.238l.834 2.555-1.972-2.488zm-.066-.083-1.1.067-.167-1.333.012-.045L8 9.833zM8.417 8.1 7.94 9.666l-.056-.489C7.83 8.8 7.83 8.023 8.201 7.75l.222.344zm.095-.033-.234-.361a2.56 2.56 0 0 1 1.111-.223l.478.872zm1.883-.967-.872.322.11-.716a.24.24 0 0 1 .04-.095zm.066-.789c-.4 0-.622.111-.733.234l.744.5.023.022.61-.222c-.094-.39-.46-.517-.644-.534m.756.611h-.006L11.14 9.55l.017.044.894-1.372-.833-1.294zm.85-.45c-.49-.077-.717.178-.795.373l1.455.305a.75.75 0 0 0-.666-.678zm1.35 1.833-.54-1.027c.112-.1.345-.239.684-.239.478 0 .71.361.716.744l-.86.528zm1.055-.538-.045.027-.01.023.35.544 1.038-.061c-.167-.311-.483-.717-.839-.717-.267 0-.422.084-.5.167zm1.155 1.327c.094-.244.178-.483.239-.677l.022.055c.033.4.095 1.2.111 1.616l-.372-1zm.339 1.156.039.105c-.017.267-.111.761-.195 1.155l-.055.012-2-.584zm-2.272 2.477 2.094-1.1-.066.289-.873 2.26-1.155-1.444zm1.128 1.56.033.04.155 4.649-1.621-4.044zM12.7 7.234l-1.361-.283.766 1.189zm-1.378 2.272.784-1.205.388.539zm-.166.295.127.11.567.59a7 7 0 0 0-.816-.373l.122-.333zm-.1-.5.039-1.55-.4.461.36 1.083zm-.584-.75a1.52 1.52 0 0 1-.794.5l.372.688zm-.538 1.166a.75.75 0 0 1-.295-.56zm.183.1.528-1.472.405 1.217v.078c-.044.083-.222.266-.578.266l-.077-.005zm-.083.084.027.055.017-.028.789 1.034-2.65-1.14zm1.038-.145-.127.339a3 3 0 0 0-.317-.111.8.8 0 0 0 .444-.222zm1.045 1.017.027.033.006-.022c.45.311.826.72 1.1 1.194l-2.067-.883zm.055-.1.122-.633a.94.94 0 0 0 .761.388c.257.007.508-.075.711-.233l-.194.694-1.4-.222zm.05-.717-.133.667-.556-.583a.6.6 0 0 0 .2.033.96.96 0 0 0 .49-.117m-.044-.078a.85.85 0 0 1-.445.111.63.63 0 0 1-.372-.133l-.017-.01-.083-.09zm.088-.077-1.05-.14 1.256-.705q-.087.426-.205.845m.056.11a.84.84 0 0 0 .733.428c.395 0 .633-.177.734-.288l-.017-.067-1.444-.089-.006.022zm1.416-.016-1.383-.083.023-.056q.113-.42.194-.85zm-1.577-1.672.566-.866c-.055.4-.133.888-.205 1.322l-.011.038zm-.8 7.654L10.317 14l1.983-.034-.944 1.911zm-1.094-1.966 1.972-.033-2.805-2.533.827 2.55zm4.5.305-1.123-1.41-.267 2.038zm-1.223-1.355-1.122 1.067.867.888zm-.272 2.066-.894-.916-.961 1.955 3.51 3.05-1.622-4.044-.039.016zm2.283-3.277-1.905 1-.261-.589zm-1.983 1.056-.256-.584-.788 1.589 1.044-1zm-.022-1.722-.25.905a3.8 3.8 0 0 0-1.006-1.11l1.256.2zm-1.511-.278a8.2 8.2 0 0 0-1.666-.722.6.6 0 0 1-.167-.033l.833 1.083.017.01h.016l.967-.332zm3.9-.533-.356-.956c-.106.256-.223.5-.334.684-.189.3-.422.494-.677.533-.234.039-.472-.061-.695-.311l-.205.75zM12.23 13.75l-2.794-2.522 1.555-.094 1.239 2.61zm-2.878-2.6 1.511-.094-2.666-1.144zm4.022.828.267-.983 1.927.566zm-1.005 1.85.877-1.761-2.144-.911zM9.906 9.805 8.14 9.733l.888-.611v.006c.134.005.317 0 .517-.05a.81.81 0 0 0 .36.727m3.433-1.45-.523-.994q-.098.713-.222 1.422zm-.695.5.733-.422.334 1.322zm.811-.466.8-.489c-.111.6-.294 1.51-.417 1.96l-.005-.005-.372-1.46zm.9-.5c-.106.533-.267 1.35-.389 1.844l.722-1.322-.333-.528zm-.378 2.01 1.572-.85c.09-.238.167-.471.228-.666l-1.01.067-.79 1.444zm-3.405-2.771.545-.2-.017.65-.527-.445zm.184.872.305-.344-.21-.178c-.006.2-.05.383-.095.522m-.3-.833v.01a.8.8 0 0 1 .167.123l.138.139a1.9 1.9 0 0 1-.166.733l-.611.206-.478-.861.95-.345zm.089 1.11c-.167.317-.434.506-.711.623-.25.1-.5.139-.695.144l.828-.572h.017l.555-.189zm4.015 2.067c-.205.033-.427-.056-.644-.311l1.583-.855c-.1.25-.216.5-.333.677-.178.289-.389.456-.611.489zm-4.704-1.9-1.36-.289-.473 1.556z" clip-rule="evenodd"/>
</svg>
